SVG/pie-chart.svg

<?xml version="1.0" encoding="utf-8"?>
<!-- Generated by IcoMoon.io -->
<!DOCTYPE svg PUBLIC "-//W3C//DTD SVG 1.1//EN" "http://www.w3.org/Graphics/SVG/1.1/DTD/svg11.dtd">
<svg version="1.1" xmlns="http://www.w3.org/2000/svg" xmlns:xlink="http://www.w3.org/1999/xlink" width="14" height="14" viewBox="0 0 14 14">
<path fill="#444444" d="M6 6.953l4.266 4.266q-0.828 0.844-1.934 1.313t-2.332 0.469q-1.633 0-3.012-0.805t-2.184-2.184-0.805-3.012 0.805-3.012 2.184-2.184 3.012-0.805v5.953zM7.461 7h6.039q0 1.227-0.469 2.332t-1.313 1.934zM13 6h-6v-6q1.633 0 3.012 0.805t2.184 2.184 0.805 3.012z"></path>
</svg>

<svg xmlns="http://www.w3.org/2000/svg" viewBox="0 0 14 14"><path d="M6 6.953l4.266 4.266q-.828.843-1.934 1.312T6 13.002q-1.633 0-3.012-.806T.804 10.012 0 7t.804-3.012 2.184-2.184T6 1V6.95zM7.46 7h6.04q0 1.227-.47 2.332t-1.312 1.934zM13 6H7V0q1.633 0 3.012.805t2.184 2.184T13 6z" /></svg>
